X: 9337
T: Dancing At Lughnasa
R: reel
M: 4/4
K: Dmixolydian
|A/B/c de fgab|c'baf gddz|f/g/f ed cdAc|BdcA G4|
A/B/c de fgab|c'baf gdab|e'c'd'b c'abg|a/b/a fa g2 z2|
A/B/c de fgab|c'baf gddz|f/g/f ed cdAc|BdcA G4|
A/B/c de fgab|c'baf gdab|e'c'd'b c'abg|a/b/a fa g2 z2|

